X:1
T: The Marchioness of Huntly's Favourite Jig
C:
R:Jig
Q:180
K:Em
M:6/8
L:1/16
B2|E4F2 G4E2|F4d2 A2G2F2|E4F2 G4A2|B4G2 B2A2G2|F4d2 d2^c2B2|A2F2D2 D2E2F2|G4E2 F2E2^D2|E6E4B,2|
E4F2 G4E2|F4d2 A2G2F2|E4F2 G4A2|B4G2 B2A2G2|F4d2 d2^c2B2|A2F2D2 D2E2F2|G4E2 F2E2^D2|E6E4F2|
G4E2 B,4G2|A2F2D2 D4F2|E4G2 F4A2|G4B2 A4c2|B4g2 d4B2|A2F2D2 D4f2|g4e2 f2e2^d2|e6E4F2|
G4E2 B,4G2|A2F2D2 D4F2|E4e2 e2f2g2|f4d2 f2g2a2|g4b2 b2a2g2|f2e2d2 f2g2a2|b2a2g2 f2e2^d2|e6e4||
